flaticon/education/book.svg

<svg xmlns="http://www.w3.org/2000/svg" width="32" height="32" viewBox="0 0 24 24">
    <path d="M 6.398438 16 L 17.601562 16 C 17.839844 16 18 15.839844 18 15.601562 L 18 9.199219 C 18 8.960938 17.839844 8.800781 17.601562 8.800781 L 6.398438 8.800781 C 6.160156 8.800781 6 8.960938 6 9.199219 L 6 15.601562 C 6 15.839844 6.160156 16 6.398438 16 Z M 6.800781 9.601562 L 17.199219 9.601562 L 17.199219 15.199219 L 6.800781 15.199219 Z M 6.800781 9.601562"/>
    <path d="M10 12L14 12C14.238281 12 14.398438 11.839844 14.398438 11.601562 14.398438 11.359375 14.238281 11.199219 14 11.199219L10 11.199219C9.761719 11.199219 9.601562 11.359375 9.601562 11.601562 9.601562 11.839844 9.761719 12 10 12zM15.199219 12.800781L8.800781 12.800781C8.558594 12.800781 8.398438 12.960938 8.398438 13.199219 8.398438 13.441406 8.558594 13.601562 8.800781 13.601562L15.199219 13.601562C15.441406 13.601562 15.601562 13.441406 15.601562 13.199219 15.601562 12.960938 15.441406 12.800781 15.199219 12.800781zM15.199219 12.800781"/>
    <path d="M 20.800781 0 L 4.800781 0 C 3.679688 0 2.800781 0.878906 2.800781 2 L 2.800781 22 C 2.800781 23.121094 3.679688 24 4.800781 24 L 20.800781 24 C 21.039062 24 21.199219 23.839844 21.199219 23.601562 L 21.199219 0.398438 C 21.199219 0.160156 21.039062 0 20.800781 0 Z M 9.601562 0.800781 L 9.601562 4.800781 L 8.640625 4.078125 C 8.558594 4.039062 8.480469 4 8.398438 4 C 8.320312 4 8.238281 4.039062 8.160156 4.078125 L 7.199219 4.800781 L 7.199219 0.800781 Z M 4.800781 0.800781 L 6.398438 0.800781 L 6.398438 5.601562 C 6.398438 5.761719 6.480469 5.878906 6.640625 5.960938 C 6.761719 6.039062 6.921875 6 7.039062 5.921875 L 8.398438 4.921875 L 9.761719 5.921875 C 9.839844 5.960938 9.921875 6 10 6 C 10.078125 6 10.121094 6 10.160156 5.960938 C 10.320312 5.878906 10.398438 5.761719 10.398438 5.601562 L 10.398438 0.800781 L 20.398438 0.800781 L 20.398438 20 L 4.800781 20 C 4.769531 20 4.742188 20 4.714844 20.003906 C 4.292969 20.019531 3.910156 20.160156 3.601562 20.390625 L 3.601562 2 C 3.601562 1.320312 4.121094 0.800781 4.800781 0.800781 Z M 20.398438 23.199219 L 4.800781 23.199219 C 4.121094 23.199219 3.601562 22.679688 3.601562 22 C 3.601562 21.320312 4.121094 20.800781 4.800781 20.800781 L 20.398438 20.800781 Z M 20.398438 23.199219"/>
    <path d="M 5.199219 22.398438 L 18.800781 22.398438 C 19.039062 22.398438 19.199219 22.238281 19.199219 22 C 19.199219 21.761719 19.039062 21.601562 18.800781 21.601562 L 5.199219 21.601562 C 4.960938 21.601562 4.800781 21.761719 4.800781 22 C 4.800781 22.238281 4.960938 22.398438 5.199219 22.398438 Z M 5.199219 22.398438"/>
</svg>

<svg xmlns="http://www.w3.org/2000/svg" width="32" height="32" viewBox="0 0 24 24">
    <path d="M6.398 16h11.204c.238 0 .398-.16.398-.398V9.199c0-.238-.16-.398-.398-.398H6.398C6.16 8.8 6 8.96 6 9.199v6.403c0 .238.16.398.398.398zm.403-6.398h10.398v5.597H6.801zm0 0"/>
    <path d="M10 12h4c.238 0 .398-.16.398-.398 0-.243-.16-.403-.398-.403h-4c-.238 0-.398.16-.398.403 0 .238.16.398.398.398zm0 0M15.2 12.8H8.8c-.241 0-.402.16-.402.4 0 .241.16.402.403.402h6.398c.242 0 .403-.16.403-.403 0-.238-.16-.398-.403-.398zm0 0"/>
    <path d="M20.8 0h-16c-1.12 0-2 .879-2 2v20c0 1.121.88 2 2 2h16c.24 0 .4-.16.4-.398V.398C21.2.16 21.04 0 20.8 0zM9.603.8v4l-.961-.722C8.559 4.04 8.48 4 8.398 4a.57.57 0 0 0-.238.078l-.96.723v-4zM4.8.8h1.597v4.802c0 .16.082.277.243.359.12.078.28.039.398-.04l1.36-1 1.363 1A.57.57 0 0 0 10 6c.078 0 .121 0 .16-.04.16-.081.238-.198.238-.358V.8h10V20H4.801c-.031 0-.059 0-.086.004a1.972 1.972 0 0 0-1.113.387V2c0-.68.52-1.2 1.199-1.2zm15.597 22.4H4.801c-.68 0-1.2-.52-1.2-1.2 0-.68.52-1.2 1.2-1.2h15.597zm0 0"/>
    <path d="M5.2 22.398h13.6c.24 0 .4-.16.4-.398 0-.238-.16-.398-.4-.398H5.2c-.24 0-.4.16-.4.398 0 .238.16.398.4.398zm0 0"/>
</svg>
